; generated by Slic3r 1.3.0 on 2022-12-19 at 23:27:34

; external perimeters extrusion width = 0.44mm (2.78mm^3/s)
; perimeters extrusion width = 0.40mm (7.14mm^3/s)
; infill extrusion width = 0.80mm (15.14mm^3/s)
; solid infill extrusion width = 0.40mm (3.57mm^3/s)
; top infill extrusion width = 0.30mm (1.29mm^3/s)

M107
M190 S63 ; set bed temperature and wait for it to be reached
M104 S215 ; set temperature
G28 ; home all axes
G1 X-10 Y50 Z20 F10000
; Filament gcode

M109 S215 ; set temperature and wait for it to be reached
G21 ; set units to millimeters
G90 ; use absolute coordinates
M82 ; use absolute distances for extrusion
G92 E0
G1 E-6.00000 F2700.00000
G92 E0
G1 Z0.500 F24000.000
G1 X98.613 Y77.558 F24000.000
G1 Z0.200 F24000.000
G1 E6.00000 F2700.00000
G1 F2100
G1 X100.158 Y76.259 E6.05993
G1 X102.084 Y75.654 E6.11986
G1 X103.576 Y75.713 E6.16422
G1 X151.977 Y84.762 E7.62620
G1 X153.850 Y85.515 E7.68613
G1 X155.288 Y86.931 E7.74606
G1 X156.071 Y88.792 E7.80599
G1 X156.087 Y90.758 E7.86438
G1 X147.212 Y138.225 E9.29813
G1 X146.734 Y140.355 E9.36297
G1 X146.115 Y142.449 E9.42780
G1 X145.980 Y142.845 E9.44023
G1 X145.193 Y144.882 E9.50505
G1 X145.026 Y145.266 E9.51747
G1 X144.076 Y147.231 E9.58230
G1 X143.879 Y147.600 E9.59472
G1 X142.772 Y149.482 E9.65955
G1 X142.545 Y149.834 E9.67197
G1 X141.289 Y151.620 E9.73679
G1 X141.035 Y151.952 E9.74921
G1 X139.638 Y153.630 E9.81404
G1 X139.357 Y153.940 E9.82646
G1 X137.828 Y155.499 E9.89129
G1 X137.524 Y155.785 E9.90371
G1 X135.873 Y157.214 E9.96853
G1 X135.546 Y157.475 E9.98096
G1 X133.785 Y158.766 E10.04578
G1 X133.437 Y158.999 E10.05820
G1 X131.577 Y160.142 E10.12303
G1 X131.212 Y160.346 E10.13545
G1 X129.265 Y161.334 E10.20028
G1 X128.885 Y161.508 E10.21270
G1 X126.864 Y162.334 E10.27752
G1 X126.470 Y162.477 E10.28995
G1 X124.389 Y163.136 E10.35477
G1 X123.985 Y163.246 E10.36719
G1 X121.857 Y163.734 E10.43202
G1 X121.446 Y163.811 E10.44444
G1 X119.650 Y164.072 E10.49832
G1 X118.869 Y164.168 E10.52168
G1 X116.690 Y164.304 E10.58651
G1 X116.272 Y164.314 E10.59893
G1 X114.089 Y164.273 E10.66375
G1 X113.671 Y164.248 E10.67618
G1 X111.499 Y164.030 E10.74100
G1 X111.085 Y163.971 E10.75342
G1 X108.937 Y163.577 E10.81825
G1 X108.529 Y163.485 E10.83067
G1 X106.421 Y162.917 E10.89550
G1 X106.022 Y162.792 E10.90792
G1 X103.966 Y162.056 E10.97274
G1 X103.579 Y161.899 E10.98516
G1 X101.590 Y160.997 E11.04999
G1 X101.216 Y160.809 E11.06241
G1 X99.308 Y159.749 E11.12724
G1 X98.951 Y159.531 E11.13966
G1 X97.134 Y158.319 E11.20449
G1 X96.796 Y158.073 E11.21691
G1 X95.084 Y156.718 E11.28173
G1 X94.767 Y156.445 E11.29415
G1 X93.171 Y154.955 E11.35898
G1 X92.877 Y154.657 E11.37140
G1 X91.408 Y153.043 E11.43623
G1 X91.139 Y152.722 E11.44865
G1 X89.806 Y150.993 E11.51347
G1 X89.564 Y150.652 E11.52589
G1 X88.376 Y148.820 E11.59072
G1 X88.162 Y148.460 E11.60314
G1 X87.127 Y146.538 E11.66797
G1 X86.944 Y146.162 E11.68039
G1 X86.216 Y144.500 E11.73427
G1 X85.916 Y143.772 E11.75763
G1 X85.205 Y141.708 E11.82246
G1 X85.085 Y141.307 E11.83488
G1 X84.652 Y139.611 E11.88685
G1 X84.458 Y138.782 E11.91212
G1 X84.091 Y136.630 E11.97695
G1 X84.038 Y136.215 E11.98937
G1 X83.848 Y134.040 E12.05419
G1 X83.828 Y133.622 E12.06661
G1 X83.817 Y131.807 E12.12050
G1 X83.830 Y131.021 E12.14386
G1 X83.994 Y128.844 E12.20868
G1 X84.043 Y128.428 E12.22110
G1 X84.384 Y126.272 E12.28593
G1 X84.466 Y125.861 E12.29835
G1 X85.035 Y123.536 E12.36943
G1 X97.688 Y79.352 E13.73405
G1 X98.586 Y77.612 E13.79219
G1 X98.936 Y77.727 F24000.000
G1 F2100
G1 X100.453 Y76.507 E13.84998
G1 X102.329 Y75.992 E13.90777
G1 X103.511 Y76.064 E13.94292
G1 X151.912 Y85.113 E15.40490
G1 X153.712 Y85.853 E15.46269
G1 X155.069 Y87.248 E15.52048
G1 X155.758 Y89.068 E15.57827
G1 X155.736 Y90.693 E15.62652
G1 X146.861 Y138.158 E17.06025
G1 X146.392 Y140.254 E17.12401
G1 X145.772 Y142.348 E17.18885
G1 X145.647 Y142.717 E17.20041
G1 X144.860 Y144.753 E17.26523
G1 X144.705 Y145.110 E17.27679
G1 X143.755 Y147.076 E17.34162
G1 X143.571 Y147.419 E17.35318
G1 X142.464 Y149.301 E17.41800
G1 X142.253 Y149.629 E17.42956
G1 X140.997 Y151.414 E17.49439
G1 X140.761 Y151.723 E17.50594
G1 X139.363 Y153.401 E17.57077
G1 X139.102 Y153.690 E17.58233
G1 X137.574 Y155.249 E17.64715
G1 X137.290 Y155.515 E17.65871
G1 X135.639 Y156.945 E17.72354
G1 X135.335 Y157.187 E17.73510
G1 X133.574 Y158.478 E17.79992
G1 X133.251 Y158.695 E17.81148
G1 X131.390 Y159.838 E17.87631
G1 X131.051 Y160.028 E17.88787
G1 X129.104 Y161.016 E17.95269
G1 X128.749 Y161.178 E17.96425
G1 X126.729 Y162.004 E18.02908
G1 X126.363 Y162.136 E18.04064
G1 X124.281 Y162.796 E18.10546
G1 X123.906 Y162.898 E18.11702
G1 X121.777 Y163.386 E18.18185
G1 X121.395 Y163.458 E18.19341
G1 X119.599 Y163.718 E18.24729
G1 X118.847 Y163.811 E18.26979
G1 X116.668 Y163.948 E18.33461
G1 X116.279 Y163.957 E18.34617
G1 X114.096 Y163.916 E18.41100
G1 X113.707 Y163.893 E18.42256
G1 X111.535 Y163.674 E18.48738
G1 X111.149 Y163.620 E18.49894
G1 X109.002 Y163.226 E18.56377
G1 X108.622 Y163.140 E18.57532
G1 X106.514 Y162.573 E18.64015
G1 X106.142 Y162.456 E18.65171
G1 X104.087 Y161.720 E18.71653
G1 X103.726 Y161.573 E18.72809
G1 X101.738 Y160.672 E18.79292
G1 X101.390 Y160.497 E18.80448
G1 X99.481 Y159.437 E18.86930
G1 X99.149 Y159.234 E18.88086
G1 X97.332 Y158.022 E18.94569
G1 X97.018 Y157.793 E18.95725
G1 X95.306 Y156.438 E19.02207
G1 X95.011 Y156.184 E19.03363
G1 X93.415 Y154.694 E19.09846
G1 X93.142 Y154.417 E19.11002
G1 X91.672 Y152.802 E19.17484
G1 X91.422 Y152.504 E19.18640
G1 X90.089 Y150.775 E19.25123
G1 X89.864 Y150.457 E19.26279
G1 X88.675 Y148.626 E19.32761
G1 X88.477 Y148.291 E19.33917
G1 X87.441 Y146.369 E19.40400
G1 X87.271 Y146.019 E19.41556
G1 X86.395 Y144.019 E19.48038
G1 X86.253 Y143.656 E19.49194
G1 X85.543 Y141.592 E19.55677
G1 X85.431 Y141.219 E19.56833
G1 X84.891 Y139.103 E19.63315
G1 X84.810 Y138.722 E19.64471
G1 X84.443 Y136.570 E19.70954
G1 X84.394 Y136.184 E19.72109
G1 X84.203 Y134.009 E19.78592
G1 X84.185 Y133.620 E19.79748
G1 X84.172 Y131.437 E19.86230
G1 X84.186 Y131.048 E19.87386
G1 X84.350 Y128.871 E19.93869
G1 X84.396 Y128.484 E19.95025
G1 X84.737 Y126.327 E20.01507
G1 X84.813 Y125.946 E20.02663
G1 X85.378 Y123.634 E20.09728
G1 X98.031 Y79.450 E21.46190
G1 X98.908 Y77.780 E21.51790
G1 X99.258 Y77.899 F24000.000
G1 F2100
G1 X100.744 Y76.762 E21.57347
G1 X103.445 Y76.415 E21.65433
G1 X151.846 Y85.464 E23.11630
G1 X153.571 Y86.189 E23.17187
G1 X154.843 Y87.562 E23.22744
G1 X155.434 Y89.338 E23.28301
G1 X155.385 Y90.628 E23.32133
G1 X146.511 Y138.092 E24.75503
G1 X146.049 Y140.153 E24.81773
G1 X145.430 Y142.247 E24.88256
G1 X145.314 Y142.588 E24.89326
G1 X144.527 Y144.624 E24.95809
G1 X144.383 Y144.955 E24.96878
G1 X143.433 Y146.921 E25.03361
G1 X143.263 Y147.238 E25.04430
G1 X142.156 Y149.120 E25.10913
G1 X141.961 Y149.423 E25.11983
G1 X140.705 Y151.209 E25.18465
G1 X140.486 Y151.495 E25.19535
G1 X139.089 Y153.173 E25.26017
G1 X137.577 Y154.736 E25.32475
G1 X137.056 Y155.245 E25.34638
G1 X135.406 Y156.675 E25.41121
G1 X135.124 Y156.899 E25.42190
G1 X133.363 Y158.190 E25.48673
G1 X133.064 Y158.390 E25.49742
G1 X131.203 Y159.533 E25.56225
G1 X130.889 Y159.709 E25.57295
G1 X128.942 Y160.697 E25.63777
G1 X128.614 Y160.847 E25.64847
G1 X126.593 Y161.673 E25.71329
G1 X126.255 Y161.796 E25.72399
G1 X124.173 Y162.455 E25.78882
G1 X123.826 Y162.550 E25.79951
G1 X121.698 Y163.038 E25.86434
G1 X119.548 Y163.365 E25.92891
G1 X118.825 Y163.455 E25.95055
G1 X116.645 Y163.592 E26.01537
G1 X116.285 Y163.600 E26.02607
G1 X114.102 Y163.559 E26.09089
G1 X113.743 Y163.537 E26.10159
G1 X111.570 Y163.319 E26.16642
G1 X111.214 Y163.269 E26.17711
G1 X109.066 Y162.875 E26.24194
G1 X108.715 Y162.795 E26.25263
G1 X106.606 Y162.228 E26.31746
G1 X106.263 Y162.120 E26.32816
G1 X104.207 Y161.383 E26.39298
G1 X103.874 Y161.248 E26.40368
G1 X101.885 Y160.347 E26.46850
G1 X101.563 Y160.185 E26.47920
G1 X99.654 Y159.125 E26.54403
G1 X99.347 Y158.937 E26.55472
G1 X97.531 Y157.725 E26.61955
G1 X97.239 Y157.513 E26.63024
G1 X95.528 Y156.158 E26.69507
G1 X95.255 Y155.923 E26.70577
G1 X93.659 Y154.433 E26.77059
G1 X93.406 Y154.177 E26.78129
G1 X91.936 Y152.562 E26.84611
G1 X91.705 Y152.286 E26.85681
G1 X90.371 Y150.557 E26.92164
G1 X90.163 Y150.263 E26.93233
G1 X88.975 Y148.431 E26.99716
G1 X88.791 Y148.121 E27.00786
G1 X87.756 Y146.199 E27.07268
G1 X87.598 Y145.876 E27.08338
G1 X86.722 Y143.876 E27.14820
G1 X86.591 Y143.540 E27.15890
G1 X85.880 Y141.475 E27.22372
G1 X85.777 Y141.130 E27.23442
G1 X85.237 Y139.015 E27.29925
G1 X85.162 Y138.663 E27.30994
G1 X84.795 Y136.510 E27.37477
G1 X84.749 Y136.153 E27.38547
G1 X84.559 Y133.978 E27.45029
G1 X84.542 Y133.618 E27.46099
G1 X84.529 Y131.435 E27.52581
G1 X84.542 Y131.075 E27.53651
G1 X84.707 Y128.898 E27.60134
G1 X84.748 Y128.540 E27.61203
G1 X85.089 Y126.383 E27.67686
G1 X85.160 Y126.030 E27.68755
G1 X85.722 Y123.733 E27.75777
G1 X98.374 Y79.549 E29.12239
G1 X99.230 Y77.952 E29.17617
G1 X99.579 Y78.074 F24000.000
G1 F2100
G1 X101.033 Y77.023 E29.22943
G1 X103.380 Y76.766 E29.29952
G1 X151.780 Y85.815 E30.76150
G1 X153.427 Y86.525 E30.81476
G1 X154.609 Y87.874 E30.86801
G1 X155.097 Y89.600 E30.92126
G1 X155.034 Y90.562 E30.94989
G1 X146.160 Y138.026 E32.38358
G1 X145.707 Y140.052 E32.44520
G1 X145.088 Y142.146 E32.51004
G1 X144.194 Y144.496 E32.58469
G1 X143.112 Y146.765 E32.65934
G1 X142.955 Y147.057 E32.66918
G1 X141.849 Y148.939 E32.73400
G1 X140.413 Y151.004 E32.80865
G1 X138.815 Y152.944 E32.88331
G1 X138.593 Y153.190 E32.89314
G1 X136.822 Y154.975 E32.96779
G1 X134.913 Y156.611 E33.04245
G1 X133.152 Y157.901 E33.10727
G1 X131.016 Y159.229 E33.18192
G1 X128.780 Y160.379 E33.25657
G1 X128.479 Y160.516 E33.26641
G1 X126.458 Y161.343 E33.33124
G1 X124.065 Y162.115 E33.40589
G1 X121.618 Y162.690 E33.48054
G1 X119.496 Y163.011 E33.54425
G1 X118.802 Y163.099 E33.56502
G1 X116.292 Y163.243 E33.63967
G1 X113.778 Y163.182 E33.71433
G1 X111.606 Y162.964 E33.77915
G1 X109.131 Y162.523 E33.85381
G1 X106.699 Y161.883 E33.92846
G1 X104.328 Y161.047 E34.00311
G1 X104.021 Y160.923 E34.01294
G1 X101.737 Y159.873 E34.08760
G1 X99.545 Y158.640 E34.16225
G1 X97.729 Y157.428 E34.22708
G1 X95.749 Y155.878 E34.30173
G1 X93.902 Y154.172 E34.37638
G1 X92.200 Y152.322 E34.45103
G1 X91.987 Y152.068 E34.46087
G1 X90.463 Y150.069 E34.53552
G1 X89.274 Y148.237 E34.60035
G1 X88.070 Y146.030 E34.67500
G1 X87.049 Y143.732 E34.74965
G1 X86.218 Y141.359 E34.82430
G1 X86.123 Y141.042 E34.83414
G1 X85.583 Y138.927 E34.89896
G1 X85.147 Y136.450 E34.97361
G1 X85.105 Y136.122 E34.98345
G1 X84.899 Y133.616 E35.05810
G1 X84.886 Y131.433 E35.12293
G1 X85.063 Y128.924 E35.19758
G1 X85.442 Y126.439 E35.27223
G1 X85.507 Y126.114 E35.28207
G1 X86.065 Y123.831 E35.35185
G1 X98.717 Y79.647 E36.71647
G1 X99.550 Y78.126 E36.76794
G1 X99.899 Y78.252 F24000.000
G1 F2100
G1 X101.317 Y77.294 E36.81877
G1 X103.314 Y77.117 E36.87829
G1 X151.715 Y86.166 E38.34026
G1 X153.280 Y86.860 E38.39110
G1 X154.367 Y88.183 E38.44193
G1 X154.683 Y90.497 E38.51128
G1 X146.477 Y134.415 E39.83784
G1 X145.809 Y137.960 E39.94494
G1 X145.364 Y139.950 E40.00549
G1 X144.745 Y142.044 E40.07033
G1 X143.861 Y144.367 E40.14412
G1 X142.648 Y146.876 E40.22687
G1 X141.541 Y148.758 E40.29170
G1 X140.121 Y150.798 E40.36549
G1 X138.540 Y152.716 E40.43928
G1 X136.589 Y154.705 E40.52203
G1 X134.702 Y156.323 E40.59582
G1 X132.941 Y157.613 E40.66065
G1 X130.829 Y158.925 E40.73444
G1 X128.344 Y160.186 E40.81719
G1 X126.323 Y161.012 E40.88202
G1 X123.958 Y161.775 E40.95581
G1 X121.538 Y162.342 E41.02960
G1 X118.780 Y162.742 E41.11235
G1 X116.299 Y162.885 E41.18614
G1 X114.116 Y162.845 E41.25097
G1 X111.642 Y162.609 E41.32476
G1 X109.195 Y162.172 E41.39855
G1 X106.792 Y161.538 E41.47234
G1 X104.168 Y160.598 E41.55509
G1 X101.910 Y159.560 E41.62888
G1 X99.743 Y158.343 E41.70267
G1 X97.927 Y157.131 E41.76750
G1 X95.971 Y155.598 E41.84129
G1 X94.146 Y153.911 E41.91508
G1 X92.270 Y151.850 E41.99783
G1 X90.762 Y149.874 E42.07162
G1 X89.574 Y148.043 E42.13645
G1 X88.384 Y145.861 E42.21024
G1 X87.376 Y143.589 E42.28403
G1 X86.469 Y140.954 E42.36678
G1 X85.929 Y138.838 E42.43161
G1 X85.499 Y136.390 E42.50540
G1 X85.256 Y133.614 E42.58815
G1 X85.254 Y131.129 E42.66194
G1 X85.419 Y128.951 E42.72677
G1 X85.854 Y126.198 E42.80952
G1 X86.408 Y123.929 E42.87888
G1 X99.061 Y79.745 E44.24349
G1 X99.869 Y78.304 E44.29255
G1 X100.217 Y78.435 F24000.000
G1 F2100
G1 X101.597 Y77.574 E44.34084
G1 X103.248 Y77.468 E44.38996
G1 X151.649 Y86.517 E45.85194
G1 X153.128 Y87.195 E45.90023
G1 X154.114 Y88.488 E45.94853
G1 X154.332 Y90.432 E46.00660
G1 X145.458 Y137.894 E47.44025
G1 X145.022 Y139.849 E47.49972
G1 X144.403 Y141.943 E47.56456
G1 X143.527 Y144.238 E47.63749
G1 X142.340 Y146.695 E47.71852
G1 X141.233 Y148.577 E47.78334
G1 X139.829 Y150.593 E47.85627
G1 X138.266 Y152.487 E47.92920
G1 X136.355 Y154.436 E48.01023
G1 X134.491 Y156.035 E48.08316
G1 X132.730 Y157.325 E48.14798
G1 X130.643 Y158.621 E48.22091
G1 X128.209 Y159.855 E48.30194
G1 X126.188 Y160.682 E48.36677
G1 X123.850 Y161.434 E48.43969
G1 X121.458 Y161.994 E48.51262
G1 X118.757 Y162.386 E48.59365
G1 X116.305 Y162.528 E48.66658
G1 X113.850 Y162.471 E48.73951
G1 X111.677 Y162.253 E48.80434
G1 X109.259 Y161.821 E48.87726
G1 X106.885 Y161.193 E48.95019
G1 X104.569 Y160.375 E49.02312
G1 X102.083 Y159.248 E49.10415
G1 X99.941 Y158.046 E49.17708
G1 X98.125 Y156.834 E49.24191
G1 X96.193 Y155.318 E49.31483
G1 X94.390 Y153.650 E49.38776
G1 X92.553 Y151.632 E49.46879
G1 X91.062 Y149.680 E49.54172
G1 X89.873 Y147.848 E49.60655
G1 X88.699 Y145.691 E49.67948
G1 X87.703 Y143.446 E49.75240
G1 X86.815 Y140.865 E49.83343
G1 X86.275 Y138.750 E49.89826
G1 X85.851 Y136.330 E49.97119
G1 X85.614 Y133.612 E50.05222
G1 X85.601 Y131.428 E50.11704
G1 X85.775 Y128.978 E50.18997
G1 X86.201 Y126.283 E50.27100
G1 X86.751 Y124.028 E50.33993
G1 X99.404 Y79.843 E51.70454
G1 X100.187 Y78.487 E51.75105
G1 E45.75105 F2700.00000
G92 E0
G1 Z0.700 F24000.000
G1 X149.965 Y90.547 F24000.000
G1 Z0.200 F24000.000
G1 E6.00000 F2700.00000
G1 F2100
G1 X141.263 Y137.090 E7.40587
G1 X140.917 Y138.669 E7.45387
G1 X140.317 Y140.696 E7.51663
G1 X139.557 Y142.663 E7.57924
G1 X138.639 Y144.562 E7.64186
G1 X137.570 Y146.380 E7.70447
G1 X136.357 Y148.105 E7.76709
G1 X135.007 Y149.726 E7.82970
G1 X133.531 Y151.231 E7.89232
G1 X131.936 Y152.612 E7.95493
G1 X130.235 Y153.858 E8.01755
G1 X128.438 Y154.962 E8.08016
G1 X126.558 Y155.916 E8.14278
G1 X124.606 Y156.714 E8.20540
G1 X122.595 Y157.351 E8.26801
G1 X120.540 Y157.823 E8.33063
G1 X118.453 Y158.125 E8.39324
G1 X116.348 Y158.257 E8.45586
G1 X114.240 Y158.218 E8.51847
G1 X112.141 Y158.007 E8.58109
G1 X110.067 Y157.626 E8.64370
G1 X108.031 Y157.079 E8.70632
G1 X106.045 Y156.367 E8.76893
G1 X104.125 Y155.496 E8.83155
G1 X102.281 Y154.472 E8.89417
G1 X100.527 Y153.302 E8.95678
G1 X98.873 Y151.993 E9.01940
G1 X97.332 Y150.553 E9.08201
G1 X95.913 Y148.994 E9.14463
G1 X94.625 Y147.324 E9.20724
G1 X93.477 Y145.555 E9.26986
G1 X92.476 Y143.698 E9.33247
G1 X91.763 Y142.070 E9.38525
G1 X91.630 Y141.766 E9.39509
G1 X90.944 Y139.772 E9.45770
G1 X90.422 Y137.729 E9.52032
G1 X90.068 Y135.650 E9.58294
G1 X89.884 Y133.549 E9.64555
G1 X89.872 Y131.440 E9.70817
G1 X90.031 Y129.337 E9.77078
G1 X90.360 Y127.254 E9.83340
G1 X90.863 Y125.186 E9.89661
G1 X103.292 Y81.821 E11.23600
G1 X149.906 Y90.536 E12.64402
G1 X150.381 Y90.262 F24000.000
G1 F2100
G1 X141.613 Y137.161 E14.06066
G1 X141.263 Y138.758 E14.10920
G1 X140.656 Y140.812 E14.17277
G1 X139.885 Y142.806 E14.23625
G1 X138.954 Y144.731 E14.29972
G1 X137.871 Y146.574 E14.36320
G1 X136.641 Y148.322 E14.42668
G1 X135.273 Y149.965 E14.49016
G1 X133.775 Y151.491 E14.55364
G1 X132.159 Y152.891 E14.61712
G1 X130.435 Y154.155 E14.68060
G1 X128.908 Y155.093 E14.73381
G1 X128.613 Y155.274 E14.74408
G1 X126.706 Y156.241 E14.80755
G1 X124.727 Y157.050 E14.87103
G1 X122.689 Y157.696 E14.93451
G1 X120.605 Y158.174 E14.99799
G1 X118.490 Y158.481 E15.06147
G1 X116.356 Y158.615 E15.12495
G1 X114.218 Y158.575 E15.18843
G1 X112.091 Y158.361 E15.25191
G1 X109.988 Y157.975 E15.31538
